icon/pk/slave.svg

<svg viewBox="0 0 48 48" fill="none" xmlns="http://www.w3.org/2000/svg" height="1em" width="1em">
  <path d="M38 38V30.5M10 38V6C10 4.89543 10.8954 4 12 4H36C37.1046 4 38 4.89543 38 6V7" stroke="black" stroke-width="4" stroke-linecap="round" stroke-linejoin="round"/>
  <path d="M25 13H24C20.6863 13 18 15.6863 18 19V19C18 22.3137 20.6863 25 24 25H25" stroke="black" stroke-width="4" stroke-linecap="round" stroke-linejoin="round"/>
  <path d="M33 13H34C37.3137 13 40 15.6863 40 19V19C40 22.3137 37.3137 25 34 25H33" stroke="black" stroke-width="4" stroke-linecap="round" stroke-linejoin="round"/>
  <path d="M25 19H33" stroke="black" stroke-width="4" stroke-linecap="round" stroke-linejoin="round"/>
  <path d="M10 38C10 34.6863 12.6863 32 16 32H32C35.3137 32 38 34.6863 38 38C38 41.3137 35.3137 44 32 44H16C12.6863 44 10 41.3137 10 38Z" fill="#2F88FF" stroke="black" stroke-width="4" stroke-linecap="round" stroke-linejoin="round"/>
  <circle cx="32" cy="38" r="2" fill="white"/>
</svg>

<svg width="48" height="48" fill="none" xmlns="http://www.w3.org/2000/svg"><path d="M38 38v-7.5M10 38V6a2 2 0 0 1 2-2h24a2 2 0 0 1 2 2v1" stroke="#000" stroke-width="4" stroke-linecap="round" stroke-linejoin="round"/><path d="M25 13h-1a6 6 0 0 0-6 6v0a6 6 0 0 0 6 6h1M33 13h1a6 6 0 0 1 6 6v0a6 6 0 0 1-6 6h-1M25 19h8" stroke="#000" stroke-width="4" stroke-linecap="round" stroke-linejoin="round"/><path d="M10 38a6 6 0 0 1 6-6h16a6 6 0 0 1 0 12H16a6 6 0 0 1-6-6Z" fill="#2F88FF" stroke="#000" stroke-width="4" stroke-linecap="round" stroke-linejoin="round"/><circle cx="32" cy="38" r="2" fill="#fff"/></svg>
